!!!OTL: 344. Jch und mein Flaeschchen.
!!!COM: Volksweise
!!!ODT: 1842
!!!ARE: Europa, Mitteleuropa, Deutschland
!!!SCT: B0344
!!!TXL: @@DE
!!!YEM: Copyright 1995, estate of Helmut Schaffrath.
**kern	**text
*ICvox	*
*Ivox	*
*clefG2	*
!! Mixed meters:  6/8; 3/4
*M6/8	*
*k[b-]	*
*F:	*
=1	=1
!LO:TX:a:t=Nicht zu schnell.	!
{8a	Jch
8a	und
8a	mein
8a	Fläſchchen
8a	.
8a	ſind
=2	=2
8a	im-
8g	-mer
8a	bei-
4cc	-ſam-
8b-}	-men,
=3	=3
{8g	Nie-
8g	-mand
8g	der-
8g	-trägt
8g	ſich
8g	ſo
=4	=4
8g	herrlich
8f	.
8g	als
4a	wir!
8r}	.
=5	=5
{8a	Steh'
8a	auch
8a	der
8a	Erd-
8a	-ball
8a	in
=6	=6
8a	ſeu-
8g	-ri-
8a	-gen
4cc	Flammen,
8b-}	.
=7	=7
{8g	ſprichts
8g	doch
8g	die
8g	ʒärt-
8g	-lich-
8g	-ſte
=8	=8
8g	Sprache
8f	.
8g	mit
4a	mir
8r}	.
=9	=9
{8a	Gluck,
8a	gluck,
8b-	gluck,
4cc	gluck,
8a	gluck,-
=10	=10
4b-	.
8g	.
8a	.
8cc	.
8ff}	.
=11	=11
{8a	.
8a	.
8b-	.
4cc	.
8a	.
=12	=12
4b-	-gluck,
8g	gluck,
4a	gluck!
8r}	.
=13	=13
*M3/4	*
!LO:TX:a:t=Langsamer.	!
{4g	Lieb-
4.g	-li-
8cc	-che
=14	=14
8ccL	Schö-
8bnJ	.
2b}	-ne,
=15	=15
{2ff	ʒaub-
8bn	-ri-
8bn	-ſche
=16	=16
8ddL	Tö-
8ccJ	.
(4.cc	-ne!
8b-X)}	.
=17	=17
*M6/8	*
!LO:TX:a:t=Tempo I.	!
{8a	und
8a	ſie
8b-	ver-
8cc	-ſteh-
8cc	-et
8a	der
=18	=18
8b-	Mohr
8a	und
8g	Kal-
8a	-muck,
8cc	muck,
8ff}	muck,
=19	=19
{8a	und
8a	ſie
8b-	ver-
8cc	-ſteh-
8cc	-et
8a	der
=20	=20
8b-	Mohr
8a	und
8g	Kal-
4f	-muck.
8r}	.
==	==
!!!AGN: Trink - Lied
!!!GTL: Wein- und Trinklieder
!!!ONB: ESAC (Essen Associative Code) Database: BOEHME
!!!AMT: irregular
!!!AIN: vox
!!!EED: Helmut Schaffrath
!!!EEV: 1.0
!!Volksweiſe nach Reinholds Melodienbuch. Leipʒig 1842.
!!@@COMMENT:"Gedicht von Auguſt Langbein 1810. Es ſteht ſchon im "Minerva-Taſchenbuch für 1810", 3. Jahrg. Leipʒig bei Gerh. 
!!Fleiſcher, 1. Jahrg. S. 253, als Einlage in ſeinem Volksmärchen: "Der
!!ſüße Brei". Dann in "Langbein's Liederkranʒ" 1820 S. 183, iſt aber ſchon früher komponirt (ſ. Bei-
!!lage ʒur "Ʒeitung für die elegante Welt", Wien 1815), dann in "Methfeſſel's Kommersbuch 1818.
!!Mit der Melodie des Letʒteren findet man das Lied noch in vielen Kommersbüchern."
!!@@END:
!!!Text: A. Langbein
!!!URL-scan: https://archive.org/details/BoehmeVtLieder1895/page/n287/mode/2up
!!!ENC: Anna Maria Matuszewska
!!!EEV: 2024/05/07
*-	*-
